www/assets/images/src/icon_opportunities.svg

<svg fill="none" height="24" viewBox="0 0 24 24" width="24" xmlns="http://www.w3.org/2000/svg"><path d="m11.9999 11c.2652 0 .5196.1054.7071.2929s.2929.4419.2929.7071v3c0 .2652-.1054.5196-.2929.7071s-.4419.2929-.7071.2929-.5196-.1054-.7071-.2929c-.1876-.1875-.2929-.4419-.2929-.7071v-3c0-.2652.1053-.5196.2929-.7071.1875-.1875.4419-.2929.7071-.2929zm0-3c.1978 0 .3911.05865.5556.16853.1644.10988.2926.26606.3683.44879.0757.18272.0955.38379.0569.57777s-.1339.37216-.2737.51202c-.1399.13985-.318.23509-.512.27368-.194.03861-.3951.01878-.5778-.05691s-.3389-.20386-.4488-.36831-.1685-.35779-.1685-.55557c0-.26522.1053-.51957.2929-.70711.1875-.18753.4419-.29289.7071-.29289zm0-6c1.3132 0 2.6136.25866 3.8268.7612 1.2133.50255 2.3157 1.23915 3.2443 2.16773 1.8753 1.87537 2.9289 4.41891 2.9289 7.07107.0087 2.3091-.7908 4.5485-2.26 6.33l2 2c.1387.1406.2327.3192.2701.5132s.0165.3947-.0601.5768c-.0831.1799-.2177.3311-.3869.4344-.1691.1033-.3651.1539-.5631.1456h-9c-2.65218 0-5.19571-1.0536-7.07108-2.9289-1.87536-1.8754-2.92893-4.4189-2.92893-7.0711 0-2.65216 1.05357-5.1957 2.92893-7.07107 1.87537-1.87536 4.4189-2.92893 7.07108-2.92893zm0 18h6.59l-.93-.93c-.0945-.0926-.1697-.2031-.2212-.3249-.0515-.1219-.0783-.2528-.0788-.3851.0037-.2638.1116-.5154.3-.7 1.3094-1.308 2.1248-3.0295 2.3073-4.8712.1825-1.8418-.2793-3.68979-1.3065-5.22928-1.0273-1.53948-2.5566-2.67516-4.3273-3.21355-1.7707-.53838-3.6734-.44617-5.38373.26094-1.71035.70711-3.12263 1.98536-3.99622 3.61698-.87358 1.63162-1.15443 3.51561-.79469 5.33111.35975 1.8155 1.33782 3.45 2.76759 4.6252s3.22275 1.8183 5.07355 1.8198z" fill="#4e8f37"/></svg>

<svg width="24" height="24" viewBox="0 0 24 24" fill="none" xmlns="http://www.w3.org/2000/svg">
<path d="M11.9999 11C12.2651 11 12.5195 11.1054 12.707 11.2929C12.8945 11.4804 12.9999 11.7348 12.9999 12V15C12.9999 15.2652 12.8945 15.5196 12.707 15.7071C12.5195 15.8946 12.2651 16 11.9999 16C11.7347 16 11.4803 15.8946 11.2928 15.7071C11.1052 15.5196 10.9999 15.2652 10.9999 15V12C10.9999 11.7348 11.1052 11.4804 11.2928 11.2929C11.4803 11.1054 11.7347 11 11.9999 11ZM11.9999 8C12.1977 8 12.391 8.05865 12.5555 8.16853C12.7199 8.27841 12.8481 8.43459 12.9238 8.61732C12.9995 8.80004 13.0193 9.00111 12.9807 9.19509C12.9421 9.38907 12.8468 9.56725 12.707 9.70711C12.5671 9.84696 12.389 9.9422 12.195 9.98079C12.001 10.0194 11.7999 9.99957 11.6172 9.92388C11.4345 9.84819 11.2783 9.72002 11.1684 9.55557C11.0585 9.39112 10.9999 9.19778 10.9999 9C10.9999 8.73478 11.1052 8.48043 11.2928 8.29289C11.4803 8.10536 11.7347 8 11.9999 8ZM11.9999 2C13.3131 2 14.6135 2.25866 15.8267 2.7612C17.04 3.26375 18.1424 4.00035 19.071 4.92893C20.9463 6.8043 21.9999 9.34784 21.9999 12C22.0086 14.3091 21.2091 16.5485 19.7399 18.33L21.7399 20.33C21.8786 20.4706 21.9726 20.6492 22.01 20.8432C22.0474 21.0372 22.0265 21.2379 21.9499 21.42C21.8668 21.5999 21.7322 21.7511 21.563 21.8544C21.3939 21.9577 21.1979 22.0083 20.9999 22H11.9999C9.34772 22 6.80419 20.9464 4.92882 19.0711C3.05346 17.1957 1.99989 14.6522 1.99989 12C1.99989 9.34784 3.05346 6.8043 4.92882 4.92893C6.80419 3.05357 9.34772 2 11.9999 2V2ZM11.9999 20H18.5899L17.6599 19.07C17.5654 18.9774 17.4902 18.8669 17.4387 18.7451C17.3872 18.6232 17.3604 18.4923 17.3599 18.36C17.3636 18.0962 17.4715 17.8446 17.6599 17.66C18.9693 16.352 19.7847 14.6305 19.9672 12.7888C20.1497 10.947 19.6879 9.09901 18.6607 7.55952C17.6334 6.02004 16.1041 4.88436 14.3334 4.34597C12.5627 3.80759 10.66 3.8998 8.94967 4.60691C7.23932 5.31402 5.82704 6.59227 4.95345 8.22389C4.07987 9.85551 3.79902 11.7395 4.15876 13.555C4.51851 15.3705 5.49658 17.005 6.92635 18.1802C8.35612 19.3554 10.1491 19.9985 11.9999 20V20Z" fill="#4E8F37"/>
</svg>
